X:178
T:Maid of Orleans,The. CJF.178
R:Quadrille
S:C.J.Fox MS, 1829/33, Beverley,E.Yorks.
B:Kidson Coll.Mitchell Lib.M1805
O:England
A:East Yorkshire
Z:vmp.P J Headford 2000 & 2008
M:6/8
L:1/8
Q:3/8=120
K:G
G>AG G>AG|G>GG B2d|cdd dBG|FAA A2B|\
G>AG G>AG|G>AG B2d|c>de dBG|DGG G2zH||!
gbg faf|ege def|gdB {c/}BAB|(d^c=c)A2d|\
gbg faf|ege def|gdd ecc|dBB cAA|!
G>GG B2d|g3 d2B|A>BA c2f|a3 f2a|\
bgg {a/}gfg|efg a2g|(fd).g (ec).f|\
(dB)e|” D Capo”(cA).d|]

